X:1
T:Title
%%score { ( 1 4 ) | ( 2 3 ) }
L:1/8
Q:1/4=138
M:6/4
K:F
V:1 treble nm="Grand Piano"
V:4 treble 
V:2 bass 
V:3 bass 
V:1
 [CA]4 A2 A2 B2 A2 | [B,G]6 [A,F]4 FF | [DB]4 B2 B2 F2 G2 | [CA]6- [CA]4 AB | %4
w: Lida~Shivers~Leech * * * *||||
 [_Ec]2 c2 c2 c2 B2 A2 | [B,G]6 D4 FG | [CA]2 A2 A2 [B,G]2 F2 G2 | [A,F]12 | c4 A2 G2 F2 [EG]2 | %9
w: |||||
 [FA]6 [CF]6 | [DF]4 [DF]2 [DG]4 [DF]2 | [CA]12 | [EG]4 [FA]2 [GB]2 [^FA]2 [GB]2 | [Ac]6 A4 A2 | %14
w: |||||
 G4 A2 G2 D2 A2 | [EG]12 | c4 A2 G2 F2 [EG]2 | [FA]6 [CF]6 | [DF]2 [DF]2 [DF]2 [^CG]2 [CF]2 [CG]2 | %19
w: |||||
 A6- A4 c2 | d2 c2 A2 c4 A2 | F2 G2 A2 B4 d2 | c4 A2 F2 G2 [FA]2 | [EG]6 [CF]6 |] %24
w: |||||
V:2
 z4 C2 C2 D2 C2 | C,6 z4 _E2 | z4 D2 D2 D2 ^C2 | z6 z4 CD | z2[K:treble] _E2 E2 E2 D2 C2 | %5
 z6 B,4 D^C | z2 C2 C2 z2 A,2 B,2 | F,,12 | [F,A,F]4 [F,CF]2 [C,B,C]2 [C,A,C]2 [C,C]2 | %9
 [F,C]6 [F,A,]6 | [B,,B,]4 [B,,B,]2 [B,,B,]4 [B,,B,]2 | [F,A,]12 | %12
 [C,C]4 [C,C]2 [C,C]2 [C,C]2 [C,C]2 | [F,C]6[K:treble] [F,CF]4 [F,CF]2 | %14
 [G,CE]4 [G,CE]2 [G,=B,D]2 [G,B,]2 [G,B,F]2 | C6 z6 | [F,A,F]4 [F,CF]2 [C,B,C]2 [C,A,C]2 [C,C]2 | %17
 [F,C]6 [F,A,]6 | [B,,B,]2 [B,,B,]2 [B,,B,]2 [B,,B,]2 [B,,B,]2 [B,,B,]2 | %19
 [F,A,C]6- [F,A,C]4 [F,A,F]2 | [F,B,F]2 [F,A,F]2 [F,CF]2 [F,A,F]4 [F,CF]2 | %21
 [F,A,]2 [F,B,E]2 [F,C_E]2[K:treble] [B,D]4 [B,F]2 | %22
 [A,CF]4[K:bass] [F,CF]2 [C,A,C]2 [C,B,C]2 [C,C]2 | [C,B,]6 [F,A,]6 |] %24
V:3
 F,12 | z6 F,6 | B,,12 | F,12 | F,,12[K:treble] | B,,12 | F,,6 C,6 | x12 | x12 | x12 | x12 | x12 | %12
 x12 | x6[K:treble] x6 | x12 | C,12 | x12 | x12 | x12 | x12 | x12 | x6[K:treble] x6 | %22
 x4[K:bass] x8 | x12 |] %24
V:4
 x12 | x12 | x12 | x12 | x12 | x12 | x12 | x12 | x12 | x12 | x12 | x12 | x12 | x12 | x12 | z6 B,6 | %16
 x12 | x12 | x12 | x12 | x12 | x12 | x12 | x12 |] %24

